build/img/calc-modal-img.svg

<svg width="329" height="221" viewBox="0 0 329 221" fill="none" xmlns="http://www.w3.org/2000/svg">
<path d="M227.166 154.029L251.049 126.028H234.578L218.931 119.852L227.166 154.029Z" fill="#A19B9B"/>
<path d="M219.655 113.35L239.086 16.1516C240.869 7.2313 249.546 1.44561 258.466 3.22886C267.386 5.0121 273.172 13.689 271.389 22.6093L251.958 119.807C250.875 125.223 245.607 128.736 240.192 127.653L227.5 125.116C222.085 124.033 218.572 118.765 219.655 113.35Z" fill="#A19B9B"/>
<path d="M237.049 19.3777C239.931 24.1139 253.932 32.5546 271.638 26.482" stroke="white" stroke-width="4" stroke-linecap="round" stroke-linejoin="round"/>
<path d="M235.402 27.6133C238.422 32.2657 253.089 40.557 271.638 34.5919" stroke="white" stroke-width="4" stroke-linecap="round" stroke-linejoin="round"/>
<path d="M218.107 117.769C221.127 122.421 235.794 130.712 254.343 124.747" stroke="white" stroke-width="4" stroke-linecap="round" stroke-linejoin="round"/>
<path d="M222.509 140.828C222.509 140.828 230.46 146.593 237.872 144.534" stroke="white" stroke-width="4" stroke-linecap="round" stroke-linejoin="round"/>
<path d="M171 170H302.75C316.143 170 327 180.857 327 194.25V194.25C327 207.643 316.143 218.5 302.75 218.5H97" stroke="#A19B9B" stroke-width="4" stroke-linecap="round" stroke-linejoin="round"/>
<path d="M30.7663 46.9504L28.4766 52.2931" stroke="#A19B9B" stroke-linecap="round" stroke-linejoin="round"/>
<path d="M33.0558 50.7666L30.7661 56.1093" stroke="#A19B9B" stroke-linecap="round" stroke-linejoin="round"/>
<path d="M35.3459 53.0562L33.0562 59.1621" stroke="#A19B9B" stroke-linecap="round" stroke-linejoin="round"/>
<path d="M37.2539 56.1091L34.5825 62.9783" stroke="#A19B9B" stroke-linecap="round" stroke-linejoin="round"/>
<path d="M39.1619 58.7805L35.3457 67.5578" stroke="#A19B9B" stroke-linecap="round" stroke-linejoin="round"/>
<path d="M41.0699 62.5967L36.1089 73.6637" stroke="#A19B9B" stroke-linecap="round" stroke-linejoin="round"/>
<path d="M42.9779 66.0312L37.6353 78.2431" stroke="#A19B9B" stroke-linecap="round" stroke-linejoin="round"/>
<path d="M49.4657 101.522L40.6885 119.84" stroke="#A19B9B" stroke-linecap="round" stroke-linejoin="round"/>
<path d="M44.5048 69.8477L38.3989 82.8227" stroke="#A19B9B" stroke-linecap="round" stroke-linejoin="round"/>
<path d="M46.0312 74.0454L39.9253 88.1654" stroke="#A19B9B" stroke-linecap="round" stroke-linejoin="round"/>
<path d="M47.9393 79.0063L40.6885 95.0344" stroke="#A19B9B" stroke-linecap="round" stroke-linejoin="round"/>
<path d="M48.7023 85.1123L40.3066 103.43" stroke="#A19B9B" stroke-linecap="round" stroke-linejoin="round"/>
<path d="M49.8474 91.5999L39.9253 113.352" stroke="#A19B9B" stroke-linecap="round" stroke-linejoin="round"/>
<path d="M20.0811 140.065C28.4767 137.776 39.1621 129.38 39.1621 129.38" stroke="#A19B9B" stroke-width="2" stroke-linecap="round" stroke-linejoin="round"/>
<path d="M38.0173 130.143C38.0173 130.143 33.0563 140.447 24.6606 141.592" stroke="#A19B9B" stroke-width="2" stroke-linecap="round" stroke-linejoin="round"/>
<path d="M38.7805 128.617C38.7805 128.617 37.254 139.302 32.293 143.5" stroke="#A19B9B" stroke-width="2" stroke-linecap="round" stroke-linejoin="round"/>
<path d="M38.3989 131.288C38.3989 131.288 40.6886 138.157 38.3989 141.974" stroke="#A19B9B" stroke-width="2" stroke-linecap="round" stroke-linejoin="round"/>
<path d="M144.489 131.67C152.885 129.38 163.57 120.984 163.57 120.984" stroke="#A19B9B" stroke-width="2" stroke-linecap="round" stroke-linejoin="round"/>
<path d="M162.426 121.748C162.426 121.748 157.464 132.051 149.069 133.196" stroke="#A19B9B" stroke-width="2" stroke-linecap="round" stroke-linejoin="round"/>
<path d="M163.189 120.221C163.189 120.221 161.662 130.907 156.701 135.104" stroke="#A19B9B" stroke-width="2" stroke-linecap="round" stroke-linejoin="round"/>
<path d="M162.807 122.893C162.807 122.893 165.097 129.762 162.807 133.578" stroke="#A19B9B" stroke-width="2" stroke-linecap="round" stroke-linejoin="round"/>
<path d="M180.741 24.6476C172.321 26.8446 161.544 35.122 161.544 35.122" stroke="#A19B9B" stroke-width="2" stroke-linecap="round" stroke-linejoin="round"/>
<path d="M162.697 34.3714C162.697 34.3714 167.771 24.1229 176.179 23.0706" stroke="#A19B9B" stroke-width="2" stroke-linecap="round" stroke-linejoin="round"/>
<path d="M161.917 35.8894C161.917 35.8894 163.561 25.2216 168.568 21.0787" stroke="#A19B9B" stroke-width="2" stroke-linecap="round" stroke-linejoin="round"/>
<path d="M162.328 33.2224C162.328 33.2224 160.114 26.3284 162.445 22.5377" stroke="#A19B9B" stroke-width="2" stroke-linecap="round" stroke-linejoin="round"/>
<path d="M1.03802 26.1739C9.45838 28.371 20.2356 36.6484 20.2356 36.6484" stroke="#A19B9B" stroke-width="2" stroke-linecap="round" stroke-linejoin="round"/>
<path d="M19.0825 35.8977C19.0825 35.8977 14.0082 25.6493 5.60041 24.597" stroke="#A19B9B" stroke-width="2" stroke-linecap="round" stroke-linejoin="round"/>
<path d="M19.8626 37.4158C19.8626 37.4158 18.2185 26.7479 13.2115 22.605" stroke="#A19B9B" stroke-width="2" stroke-linecap="round" stroke-linejoin="round"/>
<path d="M19.4517 34.7488C19.4517 34.7488 21.6655 27.8548 19.3339 24.0641" stroke="#A19B9B" stroke-width="2" stroke-linecap="round" stroke-linejoin="round"/>
<path d="M39.2772 88.8744C37.0192 70.5748 31.5755 50.5635 20.4982 36.92C24.1879 37.5944 28.384 38.4259 32.9707 39.3349C48.1104 42.3351 67.5059 46.1788 86.9937 47.9972C101.41 49.3423 116.066 49.6092 129.396 47.6275C141.731 45.7938 153.055 42.0161 161.999 35.2703C166.128 45.4249 170.746 62.4468 172.168 78.9869C172.937 87.9377 172.76 96.6355 171.123 103.973C169.547 111.036 166.669 116.629 162.198 120.09C145.859 119.144 118.437 118.046 93.04 119.225C80.1568 119.824 67.7292 121.011 57.5082 123.122C52.3973 124.178 47.789 125.475 43.9297 127.069C42.2794 127.75 40.7424 128.496 39.3497 129.315C39.9038 125.949 40.3044 121.749 40.4951 117.022C40.8213 108.94 40.5409 99.1159 39.2772 88.8744Z" stroke="#A19B9B" stroke-width="4"/>
<path d="M81.9038 98.8506C93.6068 104.32 121.287 110.605 138.384 91.9814" stroke="#A19B9B" stroke-width="2" stroke-linecap="round"/>
<path d="M98.2984 70.5095C98.6502 71.9097 98.5516 72.8111 98.2681 73.426C97.9866 74.0366 97.4473 74.5286 96.5723 74.9563C95.6851 75.3901 94.5442 75.7135 93.182 76.0298C92.6823 76.1458 92.1429 76.2629 91.5818 76.3846C90.6714 76.5821 89.7039 76.7921 88.7563 77.0301C87.7933 77.2721 86.8457 77.5444 85.9699 77.7961C85.4516 77.945 84.9584 78.0868 84.5021 78.2107C83.222 78.5583 82.1698 78.785 81.2914 78.8003C80.4398 78.8151 79.8365 78.63 79.3647 78.2261C78.871 77.8036 78.3899 77.0297 78.0311 75.6018C76.625 70.0051 80.022 64.3282 85.6187 62.922C91.2153 61.5158 96.8922 64.9129 98.2984 70.5095Z" stroke="#A19B9B" stroke-width="2"/>
<path d="M139.041 73.0872C138.77 74.4673 138.267 75.1448 137.723 75.4994C137.15 75.8723 136.341 76.0155 135.21 75.9263C134.082 75.8375 132.778 75.5312 131.311 75.1496C131.04 75.0792 130.764 75.0063 130.483 74.9322C129.274 74.6128 127.983 74.272 126.693 74.0187C125.306 73.7466 124.026 73.596 122.922 73.4661C122.755 73.4464 122.592 73.4272 122.433 73.4081C121.187 73.2585 120.27 73.1218 119.595 72.8687C118.972 72.6353 118.664 72.345 118.499 71.9145C118.304 71.4093 118.243 70.553 118.535 69.0626C119.647 63.4 125.138 59.7105 130.8 60.8219C136.463 61.9333 140.153 67.4246 139.041 73.0872Z" stroke="#A19B9B" stroke-width="2"/>
<circle cx="88.9081" cy="69.9081" r="1.9081" fill="#A19B9B"/>
<circle cx="130.908" cy="68.9081" r="1.9081" fill="#A19B9B"/>
<path d="M20.8447 37.4097C38.272 51.784 66.1049 90.4549 38.0176 130.143" stroke="#A19B9B" stroke-width="2"/>
</svg>

<svg width="329" height="221" fill="none" xmlns="http://www.w3.org/2000/svg"><path d="M227.166 154.029l23.883-28.001h-16.471l-15.647-6.176 8.235 34.177z" fill="#A19B9B"/><path d="M219.655 113.35l19.431-97.198c1.783-8.92 10.46-14.706 19.38-12.923 8.92 1.783 14.706 10.46 12.923 19.38l-19.431 97.198c-1.083 5.416-6.351 8.929-11.766 7.846l-12.692-2.537c-5.415-1.083-8.928-6.351-7.845-11.766z" fill="#A19B9B"/><path d="M237.049 19.378c2.882 4.736 16.883 13.177 34.589 7.104m-36.236 1.131c3.02 4.653 17.687 12.944 36.236 6.979m-53.531 83.177c3.02 4.652 17.687 12.943 36.236 6.978m-31.834 16.081s7.951 5.765 15.363 3.706" stroke="#fff" stroke-width="4" stroke-linecap="round" stroke-linejoin="round"/><path d="M171 170h131.75c13.393 0 24.25 10.857 24.25 24.25v0c0 13.393-10.857 24.25-24.25 24.25H97" stroke="#A19B9B" stroke-width="4" stroke-linecap="round" stroke-linejoin="round"/><path d="M30.766 46.95l-2.29 5.343m4.58-1.526l-2.29 5.342m4.58-3.053l-2.29 6.106m4.198-3.052l-2.671 6.868m4.579-4.198l-3.816 8.778m5.724-4.961l-4.961 11.067m6.869-7.633l-5.343 12.212m11.831 23.279l-8.778 18.318m3.817-49.992l-6.106 12.975m7.632-8.778l-6.106 14.12m8.015-9.159l-7.252 16.028m8.014-9.922l-8.395 18.318m9.54-11.83l-9.922 21.752" stroke="#A19B9B" stroke-linecap="round" stroke-linejoin="round"/><path d="M20.081 140.065c8.396-2.289 19.081-10.685 19.081-10.685m-1.145.763s-4.96 10.304-13.356 11.449m14.119-12.975s-1.526 10.685-6.487 14.883m6.106-12.212s2.29 6.869 0 10.686m106.09-10.304c8.396-2.29 19.081-10.686 19.081-10.686m-1.144.764s-4.962 10.303-13.357 11.448m14.12-12.975s-1.527 10.686-6.488 14.883m6.106-12.211s2.29 6.869 0 10.685m17.934-108.93c-8.42 2.197-19.197 10.474-19.197 10.474m1.153-.751s5.074-10.248 13.482-11.3M161.917 35.89s1.644-10.668 6.651-14.811m-6.24 12.143s-2.214-6.894.117-10.684M1.038 26.174c8.42 2.197 19.198 10.474 19.198 10.474m-1.154-.75S14.008 25.649 5.6 24.597m14.263 12.819s-1.645-10.668-6.652-14.811m6.241 12.144s2.213-6.894-.118-10.685" stroke="#A19B9B" stroke-width="2" stroke-linecap="round" stroke-linejoin="round"/><path d="M39.277 88.874c-2.258-18.3-7.701-38.31-18.779-51.954 3.69.674 7.886 1.506 12.473 2.415 15.14 3 34.535 6.844 54.023 8.662 14.416 1.345 29.072 1.612 42.402-.37 12.335-1.833 23.659-5.61 32.603-12.357 4.129 10.155 8.747 27.177 10.169 43.717.769 8.95.592 17.648-1.045 24.986-1.576 7.063-4.454 12.656-8.925 16.117-16.339-.946-43.761-2.044-69.158-.865-12.883.599-25.31 1.786-35.532 3.897-5.11 1.056-9.719 2.353-13.578 3.947-1.65.681-3.188 1.427-4.58 2.246.554-3.366.954-7.566 1.145-12.293.326-8.082.046-17.906-1.218-28.148z" stroke="#A19B9B" stroke-width="4"/><path d="M81.904 98.85c11.703 5.47 39.383 11.755 56.48-6.869" stroke="#A19B9B" stroke-width="2" stroke-linecap="round"/><path d="M98.298 70.51c.352 1.4.254 2.301-.03 2.916-.281.61-.82 1.103-1.696 1.53-.887.434-2.028.757-3.39 1.074-.5.116-1.04.233-1.6.355a88.86 88.86 0 0 0-2.826.645c-.963.242-1.91.514-2.786.766-.518.149-1.012.29-1.468.415-1.28.347-2.332.574-3.21.59-.852.014-1.456-.171-1.927-.575-.494-.422-.975-1.196-1.334-2.624-1.406-5.597 1.991-11.274 7.588-12.68 5.596-1.406 11.273 1.99 12.68 7.588zm40.743 2.577c-.271 1.38-.774 2.058-1.318 2.412-.573.373-1.382.517-2.513.427-1.128-.088-2.432-.395-3.899-.776-.271-.07-.547-.144-.828-.218-1.209-.32-2.5-.66-3.79-.913-1.387-.272-2.667-.423-3.771-.553l-.489-.058c-1.246-.15-2.163-.286-2.838-.54-.623-.233-.931-.523-1.096-.953-.195-.506-.256-1.362.036-2.852 1.112-5.663 6.603-9.352 12.265-8.241 5.663 1.111 9.353 6.603 8.241 12.265z" stroke="#A19B9B" stroke-width="2"/><circle cx="88.908" cy="69.908" r="1.908" fill="#A19B9B"/><circle cx="130.908" cy="68.908" r="1.908" fill="#A19B9B"/><path d="M20.845 37.41c17.427 14.374 45.26 53.045 17.173 92.733" stroke="#A19B9B" stroke-width="2"/></svg>
